X: 34606
T: Rizla, The
R: reel
M: 4/4
K: Aminor
|:c2 cA B2 BA|Be ed BA AB|c2 cA B2 BA|GE DE GD EG|
AB (3cBA B3 A|Be ed BA AB|cA BG AG EG|1 ED EG A2 AB:|2 ED EG A4||
|:DE FA E2 AB|(3cBA BG AG EG|DE FA G2 D(E|E)D EA EA, A,2|
DE FA E2 AB|(3cBA Bc ed B(c|c)A BG ED EG|1 (A4 A4):|2 A6 AB||
|:(c2 c)A (B2 B)A|GE DE GD EG|AB (3cBA (B2 B)A|Be ed BA AB|
(c2 c)A (B2 B)A|GE DE GD EG|AB (3cBA B2 BA|1 Bd ed BA AB:|2 Bd ed BA GA||
|:E2 AE cE AE|E2 eE dE eE|E2 AB (3cBA ce|ag ed cA GA|
E2 AE cE AE|E2 eE dE AB|(c2 c)A (B2 B)A|1 Be ed BA GA:|2 Be ed BA A2||

